!!!!SEGMENT: pl-kk--kk-i-389--010-002_anonim--missa-no-10-kyrie.krn
!!!cenid: 17xx:2523
!!!COM: Anonim
!!!COM-rismID: pe30004985
!!!CDT:
!!!CNT:
!!!OPR: [Missa] No. 10.
!!!OTL: Kyrie
!!!OMV: 002
!!!PDT:
!!!AGN: Sacred; Mass
!!!YEC: Copyright 2022 Narodowy Instytut Fryderyka Chopina (https://polishscores.org)
!!!YEM: License CC-BY-4.0 (https://creativecommons.org/licenses/by/4.0)
!!!SMS-siglum: PL-Kk
!!!SMS-shelfmark: Kk.I.389
!!!SMS-variant:
!!!SMS-altvar:
!!!SMS-shelfwork: 010-002 M
!!!NIFC-rismSourceID: 1001146182
!!!NIFC-rismChildID: 1001147254
!!!NIFC-islandoraID: pl-kk:6976
!!!URL-pdf-islandora: https://repozytorium.nifc.pl/islandora/object/pl-kk%3A6976/datastream/PDF/view
!!!URL-scan: https://polish.musicsources.pl/pl/lokalizacje/galeria/rekopisy/5999/1 @EN{Scan on Polish Music Sources Website} @PL{Skany w portalu Dziedzictwo Muzyki Polskiej w otwartym dostępie}
!!!IIIF:
!!!ONB-nifc: UWAGA: S – skan 17-18, A – 36-37, T – 55-56, B – 74-75. Części Mszy: Rorate, Kyrie, Gloria, Graduale, Sanctus, Benedictus, Agnus, Dona.
!!!AIN: 1 alto 1 bass 1 soprn 1 tenor
!!!key:
**kern	**text	**kern	**text	**kern	**text	**kern	**text	**dynam
*part4	*part4	*part3	*part3	*part2	*part2	*part1	*part1	*part1
*staff4	*staff4	*staff3	*staff3	*staff2	*staff2	*staff1	*staff1	*
*I"Basso.	*	*I"Tenore.	*	*I"Alto.	*	*I"Soprano.	*	*
*I'B	*	*I'T	*	*I'A	*	*I'S	*	*
*ICvox	*	*ICvox	*	*ICvox	*	*ICvox	*	*
*Ibass	*	*Itenor	*	*Ialto	*	*Isoprn	*	*
*clefF4	*	*clefC4	*	*clefC3	*	*clefC1	*	*
*k[b-]	*	*k[b-]	*	*k[b-]	*	*k[b-]	*	*
*F:	*	*F:	*	*F:	*	*F:	*	*
*M2/2	*	*M2/2	*	*M2/2	*	*M2/2	*	*
*met(C.)	*	*met(C.)	*	*met(C.)	*	*met(C.)	*	*
=1	=1	=1	=1	=1	=1	=1	=1	=1
*	*	*	*	*	*	*all\right:global	*	*
*2\right	*	*2\right	*	*2\right	*	*2\right	*	*
!	!	!	!	!	!	!LO:TX:t=P:problem:możliwe przesunięcia, 2 brakujące takty w tenore i basso.	!	!LO:DY:b:rj
2F\	Ky-	2.A\	Ky-	2.c\	Ky-	2.f/	Ky-	p
2F\	-ri-	.	.	.	.	.	.	.
.	.	4c\	-ri-	4f\	-ri-	4a\	-ri-	.
=2	=2	=2	=2	=2	=2	=2	=2	=2
2F\	-e	2.c\	-e	2.f\	-e	2.a\	-e	.
2F\	e-	.	.	.	.	.	.	.
.	.	4f\	e-	4a\	e-	4cc\	e-	.
=3	=3	=3	=3	=3	=3	=3	=3	=3
1F	-lei-	2.f\	-le-	2.a\	-le-	2.cc\	-le-	.
.	.	4c\	-i-	4a\	-i-	4ff\	-i-	.
=4	=4	=4	=4	=4	=4	=4	=4	=4
!	!	!	!	!	!	!	!	!LO:DY:b:rj
1F	-son	2c\	-son	2a\	-son,	2.ff\	-son,	f
.	.	4d\	Ky-	4.b-\	Ky-	.	.	.
.	.	8c\L	-ri-	.	.	8ee\	Ky-	.
.	.	8B-\J	.	8b-\	-ri-	8dd\	-ri-	.
=5	=5	=5	=5	=5	=5	=5	=5	=5
2F\	Ky-	2A\	-e	2f\	-e	2cc\	-e	.
2F\	-ri-	2c\	e-	2f\	e-	2a\	e-	.
=6	=6	=6	=6	=6	=6	=6	=6	=6
!	!	!LO:TX:t=P:problem:brakujący takt ?	!	!	!	!	!	!
2E\	-e	1ryy	.	2g\	-lei-	4cc\	-le-	.
.	.	.	.	.	.	4b-\	-i-	.
2F\	e-	.	.	4f\	-son	4a\	-son	.
.	.	.	.	4e\	e-	4a\	e-	.
!	!	!	!	!	!	!LO:LB:g=original	!	!
=7	=7	=7	=7	=7	=7	=7	=7	=7
1G	-lei-	2c\	-le-	2.d\	-le-	1g	-lei-	.
.	.	2Bn\	-i-	.	.	.	.	.
.	.	.	.	8g\L	.	.	.	.
.	.	.	.	8f\J	-i-	.	.	.
!	!	!	!	!LO:LB:g=original	!	!	!	!
=8	=8	=8	=8	=8	=8	=8	=8	=8
2C/	-son	2c\	-son	2e\	-son,	4g\	-son	.
.	.	.	.	.	.	2g\	Chri-	.
2C/	Chri-	4c\	Chri-	4e\	Chri-	.	.	.
.	.	4e\	.	4g\	.	4cc\	.	.
!	!	!LO:LB:g=original	!	!	!	!	!	!
=9	=9	=9	=9	=9	=9	=9	=9	=9
2D\	-ste	2d\	-ste,	2f\	-ste	4cc\	-ste	.
.	.	.	.	.	.	4bn\	.	.
2D\	e-	4d\	Chri-	2f\	e-	4b\	e-	.
.	.	4c\	.	.	.	4a\	.	.
!LO:LB:g=original	!	!	!	!	!	!	!	!
=10	=10	=10	=10	=10	=10	=10	=10	=10
4.E\	-le-	4.Bn\	-ste	4.e\	-le-	2g#X/	-lei-	.
8E\	-i-	8B\	e-	8e\	-i-	.	.	.
2A\	-son,	2c\	-le-	2e\	-son	2a\	-son	.
=11	=11	=11	=11	=11	=11	=11	=11	=11
1E	Chri-	2.Bn\	.	1e	Chri-	2a\	Chri-	.
.	.	.	.	.	.	2g#X\	.	.
.	.	8e\L	-i-	.	.	.	.	.
.	.	8d\J	.	.	.	.	.	.
=12	=12	=12	=12	=12	=12	=12	=12	=12
2A\	-ste	2c\	-son	2e\	-ste	2a\	-ste	.
2A\	e-	2c\	Chri-	2e\	e-	2a\	e-	.
=13	=13	=13	=13	=13	=13	=13	=13	=13
2A\	-le-	2c\	-ste	1f	-lei-	1a	-le-	.
2A\	-i-	2c\	e-	.	.	.	.	.
=14	=14	=14	=14	=14	=14	=14	=14	=14
1G	-son,	1d	-le-	2g\	-son	1b-X	.	.
.	.	.	.	2g\	e-	.	.	.
=15	=15	=15	=15	=15	=15	=15	=15	=15
1C	Chri-	1c	-i-	1e	-lei-	1g	-i-	.
!	!	!	!	!	!	!LO:LB:g=original	!	!
=16	=16	=16	=16	=16	=16	=16	=16	=16
4F\	-ste	4c\	-son,	4f\	-son	4a\	-son	.
4F\	e-	4r	.	8f\L	Chri-	8a\L	Chri-	.
.	.	.	.	8a\J	.	8cc\J	.	.
4BB-/	-lei-	2r	.	8a\L	-ste	8cc\L	-ste	.
.	.	.	.	8g\J	.	8b-\J	.	.
4BB-/	-son,	.	.	8g\L	e-	8b-\L	e-	.
.	.	.	.	8f\J	.	8a\J	.	.
!	!	!	!	!LO:LB:g=original	!	!	!	!
=17	=17	=17	=17	=17	=17	=17	=17	=17
!LO:TX:t=P:problem:brakujący takt ?	!	!	!	!	!	!	!	!
1ryy	.	8r	.	4.e\	-le-	4.g\	-le-	.
.	.	8c\	Chri-	.	.	.	.	.
!	!	!LO:LB:g=original	!	!	!	!	!	!
.	.	8c\	-ste	.	.	.	.	.
.	.	8c\	e-	8e\	-i-	8g\	-i-	.
.	.	8A/L	-le-	4f\	-son	4a\	-son	.
.	.	8F/J	-i-	.	.	.	.	.
.	.	8A\	-son	4f\	e-	4a\	e-	.
.	.	8B-\	e-	.	.	.	.	.
=18	=18	=18	=18	=18	=18	=18	=18	=18
4.C/	Ky-	2c\	-lei-	4.e\	-le-	4.g\	-le-	.
8C/	-ri-	.	.	8f\	-i-	8a\	-i-	.
2C/	-e	2c\	-son,	2e\	-son,	2g\	-son,	.
=19	=19	=19	=19	=19	=19	=19	=19	=19
!	!	!LO:TX:a:t=1.	!	!LO:TX:a:t=1.	!	!LO:TX:a:t=2	!	!
2c\	Ky-	1r	.	1r	.	0r	.	.
4Bn\	.	.	.	.	.	.	.	.
4B-X\	-ri-	.	.	.	.	.	.	.
=20	=20	=20	=20	=20	=20	=20-	=20	=20
2A\	-e	2c\	Ky-	4r	.	.	.	.
.	.	.	.	4f\	Ky-	.	.	.
!LO:LB:g=original	!	!	!	!	!	!	!	!
2G\	e-	4Bn\	.	4d\	.	.	.	.
.	.	4B-X\	-ri-	4e\	-ri-	.	.	.
=21	=21	=21	=21	=21	=21	=21	=21	=21
1F	-lei-	4A/	-e	4f\	-e	2ff\	Ky-	.
.	.	4F/	e-	4a\	e-	.	.	.
.	.	4G/	-le-	4b-\	-le-	4ee\	.	.
.	.	4A/	-i-	4cc\	-i-	4ee-X\	-ri-	.
=22	=22	=22	=22	=22	=22	=22	=22	=22
1BB-	-son	4B-X\	-son	1b-	-son	1dd	-e,	.
.	.	4F/	e-	.	.	.	.	.
.	.	4B-\	-le-	.	.	.	.	.
.	.	4d\	-i-	.	.	.	.	.
=23	=23	=23	=23	=23	=23	=23	=23	=23
2BB-/	Ky-	2f\	-son	2b-\	Ky-	2dd\	Ky-	.
2B-\	-ri-	4d\	Ky-	4f\	.	2dd\	-ri-	.
.	.	4e\	-ri-	4g\	-ri-	.	.	.
!	!	!LO:LB:g=original	!	!	!	!LO:LB:g=original	!	!
=24	=24	=24	=24	=24	=24	=24	=24	=24
2A\	-e	2f\	-e	2a\	-e	2cc\	-e,	.
!	!	!	!	!LO:LB:g=original	!	!	!	!
2B-\	e-	2d\	e-	8a\L	e-	8cc\L	e-	.
.	.	.	.	8g\J	.	8b-\J	.	.
.	.	.	.	8b-\L	.	8dd\L	.	.
.	.	.	.	8g\J	.	8b-\J	.	.
=25	=25	=25	=25	=25	=25	=25	=25	=25
4.c\	-le-	4.c\	-le-	4.e\	-le-	4.g\	-le-	.
8B-\	-i-	8c\	-i-	8e\	-i-	8g\	-i-	.
4A\	-son	2c\	-son,	4f\	-son	4a\	-son	.
4F\	e-	.	.	4f\	e-	4a\	e-	.
=26	=26	=26	=26	=26	=26	=26	=26	=26
2C/	-le-	2.c\	e-	2f\	-le-	1g	-lei-	.
2C/	-i-	.	.	2e\	-i-	.	.	.
.	.	4B-\	-lei-	.	.	.	.	.
=27	=27	=27	=27	=27	=27	=27	=27	=27
!LO:N:vis=1	!	!LO:N:vis=1	!	!	!	!	!	!
0F	-son.	0A	-son.	0f	-son.	0f	-son.	.
==	==	==	==	==	==	==	==	==
*-	*-	*-	*-	*-	*-	*-	*-	*-
!!!system-decoration: [(s1,s2,s3,s4)]
!!!ENC: Filip Voros
!!!END: 2023-11-13
!!!ENC: Leszek Kubiak
!!!END: 2024-01-22
